src/lib/runemarks/svg/weapons-unarmed.svg

<svg xmlns="http://www.w3.org/2000/svg" xml:space="preserve" fill-rule="evenodd" stroke-linejoin="round" stroke-miterlimit="2" clip-rule="evenodd" viewBox="0 0 300 300"><path fill-rule="nonzero" d="M38.681 99.441c4.481 2.241 9.741 4.228 15.778 5.944 3.45 1.209 8.709 2.672 15.778 4.397 13.831 3.549 14.04 4.885 16.285 3.103h2.841c-.347-1.378-1.125-2.419-2.325-3.103-.986-.744-2.254-1.01-3.366-1.547-1.56-.754-3.431-1.093-4.65-2.325-3.966-1.378-8.1-3.366-12.413-5.944-2.587-1.378-6.291-3.797-11.119-7.237l-2.587-1.809c-2.241-1.378-5.775-3.281-10.603-5.691-6.805-2.698-10.617 6.274-8.785 9.562.684 2.072 2.409 3.619 5.175 4.65zm143.785-67.229c.347 1.041.862 2.766 1.556 5.175l.262 1.809q.002 1.293.778 2.841l.516 3.881c.516 3.45.863 6.038 1.031 7.753v1.031c.347 5.344 0 10.425-1.031 15.253l-.262.516c-.178.862-.441 1.462-.778 1.809q.267.506 0 1.547l-.516 2.325q-.776 1.814-.778 4.134v1.547l.262 1.547c.347.684.778 1.031 1.294 1.031h.262l.516 1.031v-1.294l.778-.778c.169-.684.262-1.725.262-3.103v-3.881l1.031-5.175c.307-.598.967-.96 1.294-1.547a.87.87 0 0 0 0-.778v-.263c0-2.756.694-6.722 2.072-11.897.684-2.756 1.116-4.828 1.294-6.206l.778-3.103c.684-2.934.947-5.091.778-6.469l-.262-2.072c.338-.862.6-1.894.778-3.103v-1.809l.516-1.031c1.247-2.9-.535-6.948-.778-7.5 0-1.491-1.556-.766-1.556-2.325v-.778c-.545-2.206-3.852-2.791-6.723.779l-.516.516-1.031 2.072-1.031 1.556c-1.209.863-1.378 2.156-.516 3.881-.347.347-.431.684-.262 1.031zm-31.294 151.013c2.074 6.229 11.126 11.485 14.738 9.056l.516-.262c.268-.107 2.053-.822 2.443-2.657.16-.755-1.017-2.339-1.149-2.517l-.516-.516c-2.409-3.103-6.553-5.606-12.412-7.5-.684-.347-1.547-.169-2.588.516l-.778.516c-.443.216-.66 2.189-.254 3.366zm60.769-16.547q1.294-.773 2.588-2.588l2.072-4.134c.347-.347.778-1.041 1.294-2.072l.778-1.294q1.293-2.067 3.881-6.722c.714-1.011 6.101-8.639 5.428-14.484.071-1.029.53-7.711-8.025-10.088l-.778-.263c-1.2-.178-2.072-.431-2.588-.778-3.572-1.191-2.112-3.033-5.681-4.66l-1.556-.778c-1.398-.86-8.759-5.386-13.706-15.263-.471-1.21-3.457-8.872-13.969-8.269q-8.283 0-16.031 5.175a4.1 4.1 0 0 0-1.031.778l-3.103 1.031-1.809.263c-2.072.516-3.619 1.031-4.659 1.547h-.778c-4.091-.685-11.937 1.76-12.938 2.072l-2.588.778c-6.375 1.725-12.844 4.397-19.397 8.016l-7.762 2.85-5.428 3.366c-7.584 5.006-13.453 8.447-17.587 10.341l-2.587 1.031c-1.547.684-2.588 1.2-3.103 1.547l-19.397 11.381c-8.1 4.65-14.044 8.363-17.841 11.119q-2.186 1.44-4.397 2.841-4.655 2.585-6.722 4.397c-2.934 2.409-6.806 5.175-11.634 8.278l-9.047 8.279c-.162.162-1.557 1.557-.263 2.85l.263.262c1.259 1.292 1.067 1.312 2.587 2.071l.778.262c.57.318 3.807 2.121 8.015-1.547 1.209-.347 2.156-.862 2.841-1.556 0-.169.169-.431.516-.778h3.881c5.733 0 4.772 3.891 4.649 4.387l-2.072 2.587c-2.409 3.103-4.397 5.259-5.944 6.469-.684.862-1.809 1.987-3.366 3.366l-1.809 1.809c-1.041.863-2.156 1.988-3.366 3.366l-.778.778c-1.894 1.547-2.841 3.188-2.841 4.912v1.031l-3.366 10.866-2.588 8.016-1.547 3.103q-1.814 3.364-1.547 4.912c-1.725 5.175-3.188 8.972-4.397 11.381l-2.588 6.722c-.189.504-2.259 6.033-.262 6.722v.262h.516c2.409-.684 3.966-2.588 4.65-5.691.738-4.026 3.923-8.405 4.397-9.056l2.588-4.134 4.912-5.682c1.725-1.556 4.659-3.534 8.794-5.944 1.378-.516 2.588-1.209 3.619-2.072l.516-.516c5.522-3.619 13.359-7.059 23.531-10.341 10.088-3.363 10.088 17.647 10.088 19.396v1.294c-.054.317-.528 3.09 1.031 3.881h.262l1.294.516c.862 0 1.462-.084 1.809-.262.684-.178 1.294-.778 1.809-1.809l.263-.516c.684-1.378 1.125-2.409 1.294-3.103l.263-1.294a369 369 0 0 1 2.325-6.469l3.366-5.691 4.65-7.763 5.944-9.056.778-2.072c3.281-4.828 6.291-8.7 9.047-11.634 1.378-1.378 3.281-3.619 5.691-6.722l2.588-2.325c1.547-1.388 2.672-2.503 3.366-3.366l.516-.262c1.209-.684 2.072-1.725 2.587-3.103l1.031-2.841c1.095-1.628.292-1.718-3.103-11.906l-2.325-6.206c-.178-.684-.263-1.2-.263-1.556l.778-1.294c3.508-2.098 2.963.587 8.015 6.985 3.356 4.025 4.369 9.811 8.138 13.453 4.197 4.055 14.509-.762 15.647-1.294l2.072-1.294c1.631-1.098 7.21-4.851 23.785 6.205 3.996 2.666 10.323 15.639 21.975 7.499l.516-.516c1.378-1.041 2.419-1.903 3.103-2.587l1.031-.778c1.894-1.894 3.272-3.45 4.134-4.659.862-.862 1.378-1.641 1.556-2.325 1.783-3.615.084-3.418-2.072-6.713l-.516-.778a129 129 0 0 0-9.047-10.603c-1.849-2.148-15.305-7.793-10.856-13.444 5.388-5.388 1.041-14.116 1.041-19.397v-1.547c0-2.409.262-3.966.778-4.65 1.209-1.209 3.272-2.156 6.206-2.841l.262 3.103c.338 3.619.338 6.375 0 8.278l-.262.778c-.862 1.378-1.041 2.841-.516 4.397 0 3.619 1.041 6.206 3.103 7.762 1.209 1.547 2.672 2.325 4.397 2.325 1.378.347 2.503.516 3.366.516h6.722c4.797 0 2.772 3.548 2.587 3.872l-2.841 2.841c-1.269 1.269-1.694 6.855-1.04 7.5.442 3 4.407 6.991 4.913 7.5.427.334 4.404 3.444 6.459 2.062zm-48.357 41.119c-2.459-1.484-4.266-3.849-6.469-5.691-2.542-2.125-4.704-4.933-7.762-6.206-1.547-.516-2.156-1.378-1.809-2.588 0-.178.084-.347.262-.516.347-.516.684-1.209 1.031-2.072l.263-.516q.776-.776.778-2.072l-6.469-7.762c-.862-1.209-1.987-1.547-3.366-1.031-.516.347-.778 1.031-.778 2.072v.516c-.347.684-.084 1.894.778 3.619l.778 1.809q.774 2.841 0 3.881c-.549 1.591-3.131-.105-3.356-.253-3.619-1.547-8.269-1.725-13.969-.516-1.264.225-.953 1.036-15 5.691-.178 0-.347.262-.516.778l-1.031 1.294 1.547-.262.263.262c.516.347.947.516 1.294.516h1.031c5.842 0 11.552-5.144 27.412 3.103l1.294.778c4.828 2.588 8.269 4.744 10.341 6.469.684.684 1.809 1.641 3.366 2.841l1.556 1.294c2.934 2.934 4.828 5.344 5.691 7.237 2.756 4.819 3.881 10.162 3.366 16.031l-1.556 7.237c-.862 2.756-2.072 5.775-3.619 9.047l-.778 1.294c-4.134 6.028-7.669 10.341-10.603 12.928-.215 0-.753.808-.516 1.293l.516.262c1.997 0 10.826-5.445 15.262-10.856l1.556-1.556 1.556-1.809q1.814-1.814 2.588-3.881l.262-1.031a35 35 0 0 0 1.809-4.397l1.031-2.072q.776-1.561.778-2.588v-3.881c.67-13.625-1.293-13.254-7.237-25.603zM88.331 85.481q1.026 8.789 10.603 11.897 1.814.774 5.428 1.547l1.031.263 5.175.778c6.375 1.031 12.675 1.031 18.881 0 1.031 0 2.756-.347 5.175-1.031 6.544-2.241 12.412-5.606 17.588-10.088.516-.347 1.125-.947 1.809-1.809l2.325-2.325c.389-.341 3.862-3.389 3.881-5.166v-1.294l.516-1.031c.347-.684.684-1.725 1.031-3.103v-.263h.262c.508-1.094 3.263-7.025 1.556-15-.178-1.556-.694-3.703-1.556-6.469l-1.031-4.134-.262-1.547c0-1.2-.169-2.072-.516-2.587-1.894-3.45-4.734-6.816-8.531-10.087-.684-.347-1.2-.253-1.556.263-.118.124-.758.798.516 2.072 0 .347.084.778.262 1.294l.262.262c2.756 3.272 4.388 7.847 4.913 13.706-.178 1.031-.178 1.809 0 2.325 0 .178.084.347.262.516.347 7.584-1.209 14.569-4.659 20.944-2.588 3.272-4.744 5.775-6.469 7.5-2.756 2.588-5.691 4.566-8.794 5.944q-12.684 5.429-22.5 5.175h-5.944c-2.072.178-4.828-.337-8.278-1.547l-1.809-.516c-5.233-2.075-5.622-6.021-5.691-6.722-.453-1.742-3.288-2.606-3.356-2.325l-.516.263c-.516.516-.609.947-.263 1.294 0 .347.084.684.263 1.031zm133.181 27.413c.347.169.947.6 1.809 1.294.482.302 4.263 2.666 6.722 2.325 2.459 1.052 19.432 8.317 33.104-4.65l.516-.516c1.945-1.943 1.818-2.017 1.818-4.66v-1.547l-8.015 4.135-1.031.516c-.862.516-1.556.694-2.072.516-4.967-.572-10.021.459-15 0-2.583-.238-5.148-.979-7.5-2.072l-1.809-1.031c-2.587-1.387-4.491-2.503-5.691-3.366q-2.59-2.335-3.619-5.428l-.516-1.547q-2.067-5.428-2.841-8.016c-1.894-7.931-2.156-14.569-.778-19.912.347-1.031 1.031-2.756 2.072-5.175.38-.38-.347-.718 3.103-5.953l5.175-8.531.778-.778c1.378-.862 1.641-2.156.778-3.881q-1.026.52-2.841 1.547c-1.894.862-3.188 1.641-3.881 2.325l-3.881 4.913q-3.363 4.135-4.913 6.469l-.516.778c-.399.569-3.356 4.788-3.356 8.015v1.031c-.347 1.378-.516 2.419-.516 3.103-2.592 19.706 6.106 31.173 7.762 33.356q1.561 3.108 5.175 6.722zm37.238 52.237h-12.412l-4.659 1.556c-4.481 1.547-7.753 2.841-9.825 3.881-3.103 1.725-5.175 3.534-6.206 5.428l-1.031 1.809c-1.894 1.894-4.05 4.913-6.469 9.047l-.778 1.031c-.571 1.083-4.922 9.335-4.922 14.484-.862 4.828-1.2 9.309-1.031 13.444 0 16.447 13.484 27.762 15.526 29.475l1.031.778c1.2 1.041 2.147 1.294 2.841.778.231 0 3.242 0 1.294-2.587l-1.032-2.062c-3.223-1.075-6.102-6.308-6.469-6.975l-1.809-3.103c-1.547-2.409-2.494-4.481-2.841-6.206-.684-2.409-.431-4.819.778-7.237.178-.516.178-1.294 0-2.325v-5.175c0-1.378.169-3.45.516-6.206 3.694-14.669 5.391-17.508 6.206-18.872.516-.516 1.125-1.294 1.809-2.325l1.031-1.294c.516-.862 1.472-1.809 2.841-2.841l.262-.262c1.725-1.547 4.313-3.534 7.762-5.944h.262v-.262c.684-.347 1.547-.862 2.588-1.556l2.072-1.294a93 93 0 0 1 8.278-3.366c1.378 0 2.503.084 3.366.262 1.94 0 2.201-2.062 1.041-2.062zm41.119-30c-.072-.492-.643-4.397-4.397-4.397h-1.031c-2.191 0-4.316.756-6.469 1.162-12.466 2.353-12.419 2.075-13.444 2.456h-1.556c-.516 0-.863-.084-1.031-.263-1.547-1.031-3.356-1.378-5.428-1.031q-1.814 0-5.428 1.294l-2.072.516c-1.209.516-2.156.694-2.841.516-3.644-.406-9.081 1.54-9.834 1.81.169.347.516.684 1.031 1.031l.516.516v.263l4.397 1.031c9.994 1.894 17.494 3.441 22.5 4.65h.778c.347.178.862.262 1.556.262l10.603 2.072c3.45.516 6.731-1.294 9.825-5.428 2.827-1.599 2.381-5.914 2.325-6.46M198.497 262.106q-.52-.505 0-2.841c.347-5.006-.6-9.141-2.841-12.413-1.235-2.063-1.118-4.68-1.809-6.984-.345-1.151-1.14-2.174-1.294-3.366-.178-.684-.262-1.809-.262-3.366v-2.072q.267-2.588 0-3.881a30.9 30.9 0 0 0-3.881-11.634l-.516.516v.516l-.262 2.325c-.347.862-.431 1.463-.262 1.809.347 5.522.516 9.572.516 12.15l-.262 11.119c-.178.684-.262 1.631-.262 2.841v1.031l-.516 5.691v1.294c-.347 6.384.431 11.644 2.325 15.778l1.556 6.206c.516 1.041 1.125 1.641 1.809 1.809l.262.262c1.872 1.259 2.286-.33 2.334-.515v-.516q1.294-1.027 2.841-5.428c2.738-5.479.868-9.587.525-10.341zm32.578-218.259c0-.024.005-.164-.053-.174-.049-.009-.032.03-.462.427h.262v.263z"/></svg>

<?xml version="1.0" encoding="UTF-8" standalone="no"?>
<!DOCTYPE svg PUBLIC "-//W3C//DTD SVG 1.1//EN" "http://www.w3.org/Graphics/SVG/1.1/DTD/svg11.dtd">
<svg width="100%" height="100%" viewBox="0 0 300 300" version="1.1" xmlns="http://www.w3.org/2000/svg" xmlns:xlink="http://www.w3.org/1999/xlink" xml:space="preserve" xmlns:serif="http://www.serif.com/" style="fill-rule:evenodd;clip-rule:evenodd;stroke-linejoin:round;stroke-miterlimit:2;">
    <path d="M38.681,99.441C43.162,101.682 48.422,103.669 54.459,105.385C57.909,106.594 63.168,108.057 70.237,109.782C84.068,113.331 84.277,114.667 86.522,112.885L89.363,112.885C89.016,111.507 88.238,110.466 87.038,109.782C86.052,109.038 84.784,108.772 83.672,108.235C82.112,107.481 80.241,107.142 79.022,105.91C75.056,104.532 70.922,102.544 66.609,99.966C64.022,98.588 60.318,96.169 55.49,92.729L52.903,90.92C50.662,89.542 47.128,87.639 42.3,85.229C35.495,82.531 31.683,91.503 33.515,94.791C34.199,96.863 35.924,98.41 38.69,99.441L38.681,99.441ZM182.466,32.212C182.813,33.253 183.328,34.978 184.022,37.387L184.284,39.196C184.285,40.058 184.545,41.005 185.062,42.037L185.578,45.918C186.094,49.368 186.441,51.956 186.609,53.671L186.609,54.702C186.956,60.046 186.609,65.127 185.578,69.955L185.316,70.471C185.138,71.333 184.875,71.933 184.538,72.28C184.716,72.617 184.716,73.133 184.538,73.827L184.022,76.152C183.505,77.361 183.245,78.739 183.244,80.286L183.244,81.833L183.506,83.38C183.853,84.064 184.284,84.411 184.8,84.411L185.062,84.411L185.578,85.442L185.578,84.148L186.356,83.37C186.525,82.686 186.618,81.645 186.618,80.267L186.618,76.386L187.649,71.211C187.956,70.613 188.616,70.251 188.943,69.664C189.069,69.437 189.061,69.117 188.943,68.886L188.943,68.623C188.943,65.867 189.637,61.901 191.015,56.726C191.699,53.97 192.131,51.898 192.309,50.52L193.087,47.417C193.771,44.483 194.034,42.326 193.865,40.948L193.603,38.876C193.941,38.014 194.203,36.982 194.381,35.773L194.381,33.964L194.897,32.933C196.144,30.033 194.362,25.985 194.119,25.433C194.119,23.942 192.563,24.667 192.563,23.108L192.563,22.33C192.018,20.124 188.711,19.539 185.84,23.109L185.324,23.625L184.293,25.697L183.262,27.253C182.053,28.116 181.884,29.409 182.746,31.134C182.399,31.481 182.315,31.818 182.484,32.165L182.466,32.212ZM151.172,183.225C153.246,189.454 162.298,194.71 165.91,192.281L166.426,192.019C166.694,191.912 168.479,191.197 168.869,189.362C169.029,188.607 167.852,187.023 167.72,186.845L167.204,186.329C164.795,183.226 160.651,180.723 154.792,178.829C154.108,178.482 153.245,178.66 152.204,179.345L151.426,179.861C150.983,180.077 150.766,182.05 151.172,183.227L151.172,183.225ZM211.941,166.678C212.804,166.163 213.666,165.3 214.529,164.09L216.601,159.956C216.948,159.609 217.379,158.915 217.895,157.884L218.673,156.59C219.535,155.212 220.829,152.971 222.554,149.868C223.268,148.857 228.655,141.229 227.982,135.384C228.053,134.355 228.512,127.673 219.957,125.296L219.179,125.033C217.979,124.855 217.107,124.602 216.591,124.255C213.019,123.064 214.479,121.222 210.91,119.595L209.354,118.817C207.956,117.957 200.595,113.431 195.648,103.554C195.177,102.344 192.191,94.682 181.679,95.285C176.157,95.285 170.813,97.01 165.648,100.46C165.265,100.663 164.917,100.926 164.617,101.238L161.514,102.269L159.705,102.532C157.633,103.048 156.086,103.563 155.046,104.079L154.268,104.079C150.177,103.394 142.331,105.839 141.33,106.151L138.742,106.929C132.367,108.654 125.898,111.326 119.345,114.945L111.583,117.795L106.155,121.161C98.571,126.167 92.702,129.608 88.568,131.502L85.981,132.533C84.434,133.217 83.393,133.733 82.878,134.08L63.481,145.461C55.381,150.111 49.437,153.824 45.64,156.58C44.183,157.54 42.717,158.487 41.243,159.421C38.14,161.144 35.899,162.61 34.521,163.818C31.587,166.227 27.715,168.993 22.887,172.096L13.84,180.375C13.678,180.537 12.283,181.932 13.577,183.225L13.84,183.487C15.099,184.779 14.907,184.799 16.427,185.558L17.205,185.82C17.775,186.138 21.012,187.941 25.22,184.273C26.429,183.926 27.376,183.411 28.061,182.717C28.061,182.548 28.23,182.286 28.577,181.939L32.458,181.939C38.191,181.939 37.23,185.83 37.107,186.326L35.035,188.913C32.626,192.016 30.638,194.172 29.091,195.382C28.407,196.244 27.282,197.369 25.725,198.748L23.916,200.557C22.875,201.42 21.76,202.545 20.55,203.923L19.772,204.701C17.878,206.248 16.931,207.889 16.931,209.613L16.931,210.644L13.565,221.51L10.977,229.526L9.43,232.629C8.221,234.87 7.705,236.51 7.883,237.541C6.158,242.716 4.695,246.513 3.486,248.922L0.898,255.644C0.709,256.148 -1.361,261.677 0.636,262.366L0.636,262.628L1.152,262.628C3.561,261.944 5.118,260.04 5.802,256.937C6.54,252.911 9.725,248.532 10.199,247.881L12.787,243.747L17.699,238.065C19.424,236.509 22.358,234.531 26.493,232.121C27.871,231.605 29.081,230.912 30.112,230.049L30.628,229.533C36.15,225.914 43.987,222.474 54.159,219.192C64.247,215.829 64.247,236.839 64.247,238.588L64.247,239.882C64.193,240.199 63.719,242.972 65.278,243.763L65.54,243.763L66.834,244.279C67.696,244.279 68.296,244.195 68.643,244.017C69.327,243.839 69.937,243.239 70.452,242.208L70.715,241.692C71.399,240.314 71.84,239.283 72.009,238.589L72.272,237.295C73.027,235.131 73.802,232.975 74.597,230.826L77.963,225.135L82.613,217.372L88.557,208.316L89.335,206.244C92.616,201.416 95.626,197.544 98.382,194.61C99.76,193.232 101.663,190.991 104.073,187.888L106.661,185.563C108.208,184.175 109.333,183.06 110.027,182.197L110.543,181.935C111.752,181.251 112.615,180.21 113.13,178.832L114.161,175.991C115.256,174.363 114.453,174.273 111.058,164.085L108.733,157.879C108.555,157.195 108.47,156.679 108.47,156.323L109.248,155.029C112.756,152.931 112.211,155.616 117.263,162.014C120.619,166.039 121.632,171.825 125.401,175.467C129.598,179.522 139.91,174.705 141.048,174.173L143.12,172.879C144.751,171.781 150.33,168.028 166.905,179.084C170.901,181.75 177.228,194.723 188.88,186.583L189.396,186.067C190.774,185.026 191.815,184.164 192.499,183.48L193.53,182.702C195.424,180.808 196.802,179.252 197.664,178.043C198.526,177.181 199.042,176.402 199.22,175.718C201.003,172.103 199.304,172.3 197.148,169.005L196.632,168.227C193.81,164.532 190.79,160.993 187.585,157.624C185.736,155.476 172.28,149.831 176.729,144.18C182.117,138.792 177.77,130.064 177.77,124.783L177.77,123.236C177.77,120.827 178.032,119.27 178.548,118.586C179.757,117.377 181.82,116.43 184.754,115.745L185.016,118.848C185.354,122.467 185.354,125.223 185.016,127.126L184.754,127.904C183.892,129.282 183.713,130.745 184.238,132.301C184.238,135.92 185.279,138.507 187.341,140.063C188.55,141.61 190.013,142.388 191.738,142.388C193.116,142.735 194.241,142.904 195.104,142.904L201.826,142.904C206.623,142.904 204.598,146.452 204.413,146.776L201.572,149.617C200.303,150.886 199.878,156.472 200.532,157.117C200.974,160.117 204.939,164.108 205.445,164.617C205.872,164.951 209.849,168.061 211.904,166.679L211.941,166.678ZM163.584,207.797C161.125,206.313 159.318,203.948 157.115,202.106C154.573,199.981 152.411,197.173 149.353,195.9C147.806,195.384 147.197,194.522 147.544,193.312C147.544,193.134 147.628,192.965 147.806,192.796C148.153,192.28 148.49,191.587 148.837,190.724L149.1,190.208C149.617,189.691 149.877,189 149.878,188.136L143.409,180.374C142.547,179.165 141.422,178.827 140.043,179.343C139.527,179.69 139.265,180.374 139.265,181.415L139.265,181.931C138.918,182.615 139.181,183.825 140.043,185.55L140.821,187.359C141.337,189.253 141.337,190.547 140.821,191.24C140.272,192.831 137.69,191.135 137.465,190.987C133.846,189.44 129.196,189.262 123.496,190.471C122.232,190.696 122.543,191.507 108.496,196.162C108.318,196.162 108.149,196.424 107.98,196.94L106.949,198.234L108.496,197.972L108.759,198.234C109.275,198.581 109.706,198.75 110.053,198.75L111.084,198.75C116.926,198.75 122.636,193.606 138.496,201.853L139.79,202.631C144.618,205.219 148.059,207.375 150.131,209.1C150.815,209.784 151.94,210.741 153.497,211.941L155.053,213.235C157.987,216.169 159.881,218.579 160.744,220.472C163.5,225.291 164.625,230.634 164.11,236.503L162.554,243.74C161.692,246.496 160.482,249.515 158.935,252.787L158.157,254.081C154.023,260.109 150.488,264.422 147.554,267.009C147.339,267.009 146.801,267.817 147.038,268.302L147.554,268.564C149.551,268.564 158.38,263.119 162.816,257.708L164.372,256.152L165.928,254.343C167.137,253.134 168,251.84 168.516,250.462L168.778,249.431C169.48,248.008 170.084,246.539 170.587,245.034L171.618,242.962C172.135,241.921 172.395,241.059 172.396,240.374L172.396,236.493C173.066,222.868 171.103,223.239 165.159,210.89L163.584,207.797ZM88.331,85.481C89.015,91.34 92.549,95.306 98.934,97.378C100.143,97.894 101.953,98.41 104.362,98.925L105.393,99.188L110.568,99.966C116.943,100.997 123.243,100.997 129.449,99.966C130.48,99.966 132.205,99.619 134.624,98.935C141.168,96.694 147.036,93.329 152.212,88.847C152.728,88.5 153.337,87.9 154.021,87.038L156.346,84.713C156.735,84.372 160.208,81.324 160.227,79.547L160.227,78.253L160.743,77.222C161.09,76.538 161.427,75.497 161.774,74.119L161.774,73.856L162.036,73.856C162.544,72.762 165.299,66.831 163.592,58.856C163.414,57.3 162.898,55.153 162.036,52.387L161.005,48.253L160.743,46.706C160.743,45.506 160.574,44.634 160.227,44.119C158.333,40.669 155.493,37.303 151.696,34.032C151.012,33.685 150.496,33.779 150.14,34.295C150.022,34.419 149.382,35.093 150.656,36.367C150.656,36.714 150.74,37.145 150.918,37.661L151.18,37.923C153.936,41.195 155.568,45.77 156.093,51.629C155.915,52.66 155.915,53.438 156.093,53.954C156.093,54.132 156.177,54.301 156.355,54.47C156.702,62.054 155.146,69.039 151.696,75.414C149.108,78.686 146.952,81.189 145.227,82.914C142.471,85.502 139.536,87.48 136.433,88.858C127.977,92.477 120.477,94.202 113.933,94.033L107.989,94.033C105.917,94.211 103.161,93.696 99.711,92.486L97.902,91.97C92.669,89.895 92.28,85.949 92.211,85.248C91.758,83.506 88.923,82.642 88.855,82.923L88.339,83.186C87.823,83.702 87.73,84.133 88.076,84.48C88.076,84.827 88.16,85.164 88.339,85.511L88.331,85.481ZM221.512,112.894C221.859,113.063 222.459,113.494 223.321,114.188C223.803,114.49 227.584,116.854 230.043,116.513C232.502,117.565 249.475,124.83 263.147,111.863L263.663,111.347C265.608,109.404 265.481,109.33 265.481,106.687L265.481,105.14L257.466,109.275L256.435,109.791C255.573,110.307 254.879,110.485 254.363,110.307C249.396,109.735 244.342,110.766 239.363,110.307C236.78,110.069 234.215,109.328 231.863,108.235L230.054,107.204C227.467,105.817 225.563,104.701 224.363,103.838C222.636,102.281 221.43,100.472 220.744,98.41L220.228,96.863C218.85,93.244 217.903,90.572 217.387,88.847C215.493,80.916 215.231,74.278 216.609,68.935C216.956,67.904 217.64,66.179 218.681,63.76C219.061,63.38 218.334,63.042 221.784,57.807L226.959,49.276L227.737,48.498C229.115,47.636 229.378,46.342 228.515,44.617C227.831,44.964 226.884,45.479 225.674,46.164C223.78,47.026 222.486,47.805 221.793,48.489L217.912,53.402C215.67,56.159 214.032,58.315 212.999,59.871L212.483,60.649C212.084,61.218 209.127,65.437 209.127,68.664L209.127,69.695C208.78,71.073 208.611,72.114 208.611,72.798C206.019,92.504 214.717,103.971 216.373,106.154C217.414,108.226 219.139,110.467 221.548,112.876L221.512,112.894ZM258.75,165.131L246.338,165.131L241.679,166.687C237.198,168.234 233.926,169.528 231.854,170.568C228.751,172.293 226.679,174.102 225.648,175.996L224.617,177.805C222.723,179.699 220.567,182.718 218.148,186.852L217.37,187.883C216.799,188.966 212.448,197.218 212.448,202.367C211.586,207.195 211.248,211.676 211.417,215.811C211.417,232.258 224.901,243.573 226.943,245.286L227.974,246.064C229.174,247.105 230.121,247.358 230.815,246.842C231.046,246.842 234.057,246.842 232.109,244.255L231.077,242.193C227.854,241.118 224.975,235.885 224.608,235.218L222.799,232.115C221.252,229.706 220.305,227.634 219.958,225.909C219.274,223.5 219.527,221.09 220.736,218.672C220.914,218.156 220.914,217.378 220.736,216.347L220.736,211.172C220.736,209.794 220.905,207.722 221.252,204.966C224.946,190.297 226.643,187.458 227.458,186.094C227.974,185.578 228.583,184.8 229.267,183.769L230.298,182.475C230.814,181.613 231.77,180.666 233.139,179.634L233.401,179.372C235.126,177.825 237.714,175.838 241.163,173.428L241.425,173.428L241.425,173.166C242.109,172.819 242.972,172.304 244.013,171.61L246.085,170.316C248.789,169.062 251.551,167.939 254.363,166.95C255.741,166.95 256.866,167.034 257.729,167.212C259.669,167.212 259.93,165.15 258.77,165.15L258.75,165.131ZM299.869,135.131C299.797,134.639 299.226,130.734 295.472,130.734L294.441,130.734C292.25,130.734 290.125,131.49 287.972,131.896C275.506,134.249 275.553,133.971 274.528,134.352L272.972,134.352C272.456,134.352 272.109,134.268 271.941,134.089C270.394,133.058 268.585,132.711 266.513,133.058C265.304,133.058 263.494,133.489 261.085,134.352L259.013,134.868C257.804,135.384 256.857,135.562 256.172,135.384C252.528,134.978 247.091,136.924 246.338,137.194C246.507,137.541 246.854,137.878 247.369,138.225L247.885,138.741L247.885,139.004L252.282,140.035C262.276,141.929 269.776,143.476 274.782,144.685L275.56,144.685C275.907,144.863 276.422,144.947 277.116,144.947L287.719,147.019C291.169,147.535 294.45,145.725 297.544,141.591C300.371,139.992 299.925,135.677 299.869,135.131M198.497,262.106C198.15,261.769 198.15,260.822 198.497,259.265C198.844,254.259 197.897,250.124 195.656,246.852C194.421,244.789 194.538,242.172 193.847,239.868C193.502,238.717 192.707,237.694 192.553,236.502C192.375,235.818 192.291,234.693 192.291,233.136L192.291,231.064C192.469,229.339 192.469,228.045 192.291,227.183C191.788,223.085 190.468,219.129 188.41,215.549L187.894,216.065L187.894,216.581L187.632,218.906C187.285,219.768 187.201,220.369 187.37,220.715C187.717,226.237 187.886,230.287 187.886,232.865L187.624,243.984C187.446,244.668 187.362,245.615 187.362,246.825L187.362,247.856L186.846,253.547L186.846,254.841C186.499,261.225 187.277,266.485 189.171,270.619L190.727,276.825C191.243,277.866 191.852,278.466 192.536,278.634L192.798,278.896C194.67,280.155 195.084,278.566 195.132,278.381L195.132,277.865C195.995,277.18 196.942,275.371 197.973,272.437C200.711,266.958 198.841,262.85 198.498,262.096L198.497,262.106ZM231.075,43.847C231.075,43.823 231.08,43.683 231.022,43.673C230.973,43.664 230.99,43.703 230.56,44.1L230.822,44.1L230.822,44.363L231.075,43.847Z" style="fill-rule:nonzero;"/>
</svg>
